src/16/actions/layer-delete.svg

<svg xmlns="http://www.w3.org/2000/svg" width="16" height="16" viewBox="0 0 16 16">
 <defs>
  <style id="current-color-scheme" type="text/css">
   .ColorScheme-Text { color:#565656; } .ColorScheme-Highlight { color:#5294e2; }
  </style>
 </defs>
 <path style="fill:currentColor" class="ColorScheme-Text" d="m4 2l-3 3h9l3-3h-9zm0 4l-3 3h9l3-3h-9zm6.834 4l-0.834 0.834 1.666 1.666-1.666 1.666 0.834 0.834 1.666-1.666 1.666 1.666 0.834-0.834-1.666-1.666 1.666-1.666-0.834-0.834-1.666 1.666-1.666-1.666z"/>
</svg>

<svg xmlns="http://www.w3.org/2000/svg" width="16" height="16"><defs><style id="current-color-scheme" type="text/css"></style></defs><path d="M4 2L1 5h9l3-3H4zm0 4L1 9h9l3-3H4zm6.834 4l-.834.834 1.666 1.666L10 14.166l.834.834 1.666-1.666L14.166 15l.834-.834-1.666-1.666L15 10.834 14.166 10 12.5 11.666 10.834 10z" fill="currentColor" color="#565656"/></svg>
